dist/img/svg/basket.svg

<svg width="24" height="24" viewBox="0 0 24 24" fill="none" xmlns="http://www.w3.org/2000/svg">
<path d="M8.80994 2L5.18994 5.63" stroke="currentColor" stroke-width="1.5" stroke-miterlimit="10" stroke-linecap="round" stroke-linejoin="round"/>
<path d="M15.1899 2L18.8099 5.63" stroke="currentColor" stroke-width="1.5" stroke-miterlimit="10" stroke-linecap="round" stroke-linejoin="round"/>
<path d="M2 7.8501C2 6.0001 2.99 5.8501 4.22 5.8501H19.78C21.01 5.8501 22 6.0001 22 7.8501C22 10.0001 21.01 9.8501 19.78 9.8501H4.22C2.99 9.8501 2 10.0001 2 7.8501Z" stroke="currentColor" stroke-width="1.5"/>
<path d="M9.75977 14V17.55" stroke="currentColor" stroke-width="1.5" stroke-linecap="round"/>
<path d="M14.3604 14V17.55" stroke="currentColor" stroke-width="1.5" stroke-linecap="round"/>
<path d="M3.5 10L4.91 18.64C5.23 20.58 6 22 8.86 22H14.89C18 22 18.46 20.64 18.82 18.76L20.5 10" stroke="currentColor" stroke-width="1.5" stroke-linecap="round"/>
</svg>

<svg width="24" height="24" viewBox="0 0 24 24" fill="none" xmlns="http://www.w3.org/2000/svg"><path d="M8.81 2L5.19 5.63m10-3.63l3.62 3.63" stroke="currentColor" stroke-width="1.5" stroke-miterlimit="10" stroke-linecap="round" stroke-linejoin="round"/><path d="M2 7.85c0-1.85.99-2 2.22-2h15.56c1.23 0 2.22.15 2.22 2 0 2.15-.99 2-2.22 2H4.22C2.99 9.85 2 10 2 7.85z" stroke="currentColor" stroke-width="1.5"/><path d="M9.76 14v3.55m4.6-3.55v3.55M3.5 10l1.41 8.64C5.23 20.58 6 22 8.86 22h6.03c3.11 0 3.57-1.36 3.93-3.24L20.5 10" stroke="currentColor" stroke-width="1.5" stroke-linecap="round"/></svg>
